X: 1
T: Tio kronors polska
R: Bingsj\"o-polska
Z: John Chambers <jc@trillian.mit.edu>
M: 3/4
L: 1/16
K: A
|: "A"A3c efec A2c2 \
| "E7"c2BA [B6E6] c2 \
| "D"dcde f2f2 d3e \
| "E7"f2gf efed cdcB \
| "A"AEAc efec A2c2 |
| "E7"c2BA B6 c2 \
| "D"dcde f2f2 "E7"dedB \
| GEGB "A"A8 \
:: "A"efed cAce a2f2 \
| "D"fafd "E7"BGBd f2e2 |
| "A"e2fe "(E)"d2ed "A"c2a2 \
| "E7"g2ag f2f2 e4 \
| "A"efed cAce a2f2 \
| "D"fafd "E7"BGBd f2e2 \
| "A"e2fe "(E)"d2ed "A"c2ec \
| "E7"GEGB "A"A8 :|
